X:1
T:Tregeseal
C:Jackie Tolliday-Bailey
R:hornpipe
M:4/4
L:1/8
K:Dmaj
B | cFFE F2 FB | cFFE F2 F2 | E3 G B4 | cdcB AGFB |
cFFE F2 FB | cFFE F2 F2 | E3 G B4 | cBAG F3 c ||
cffg agf2 | cffg a4 | Beef gf e2 | Beef G4 |
cffg ag g2 | cffg A4 | c3 B A F | GABc F4 |]
